!!!COM: Beethoven, Ludwig van
!!!CDT: 1770///-1827///
!!!OTL: Piano Sonata no. 5 in C Minor
!!!ODT: 1795///-1797///
!!!ODE: &agrave; la Comtesse de Browne
!!!OMD: Adagio molto
!!!OPS: 10
!!!ONM: 1
!!!OMV: 2
**kern	**kern	**dynam
*staff2	*staff1	*staff1/2
*Ipiano	*Ipiano	*Ipiano
*clefF4	*clefG2	*clefG2
*k[b-e-a-d-]	*k[b-e-a-d-]	*k[b-e-a-d-]
*A-:	*A-:	*A-:
*M2/4	*M2/4	*M2/4
*MM52	*MM52	*MM52
=1-	=1-	=1-
*	*^	*
4AA- 4E- (4A-	(4a-SSs	4c	p
4GG\ 4E-\ 4G\	8.ccL	4d-	.
.	16b-Jk)	.	.
=2	=2	=2	=2
4.AA- 4.E- 4.A-)	(4.a-	4.c	.
8r	8an)	8rc	.
=3	=3	=3	=3
*^	*	*	*
8d-L	(4G	(4b-SSs	4e-	.
8B-	.	.	.	.
8A-	4A-	8.dd-L	8e-L	.
8cJ	.	.	8a-J	.
.	.	16ccJk)	.	.
=4	=4	=4	=4	=4
*v	*v	*	*	*
4.E-) 4.e-	(4.b-	4.g	.
8r	8bn)	8r	.
=5	=5	=5	=5
4A-	(8..ccL	4e-	<
.	32a-Jkk	.	.
4C 4A- 4c	8..ee-L	4e- 4a-	.
.	32ccJkk	.	.
=6	=6	=6	=6
4D- 4A- 4d-	8..ffL	4f 4a-	.
.	32dd-Jkk)	.	.
[4F: [4A-: [4d-: [4f:	4ryy	[4a-: [4dd-: ([4aa-:	fp
!!LO:LB:g=original
=7	=7	=7	=7
4F] 4A-] 4d-] 4f]	16aa-LL]	4a-] 4dd-]	>
.	16gg)	.	.
.	16ff'	.	.
.	16ee-'JJ	.	.
(<8G 8e-L	(8b- 8dd-L>	4ryy	]
8A-) 8e-J	8a-) 8ccJ	.	.
=8	=8	=8	=8
*^	*	*	*
(8.cL	4E-	(8.ee-L	8e-L	.
.	.	.	8e-	.
16A-Jk	.	16ccJk)	.	.
8G)	8E-	16b-TLL	8e-J	.
.	.	(an16qLL	.	.
.	.	b-16qJJ)	.	.
.	.	32dd-L	.	.
.	.	32ccJJJ	.	.
8r	8r	32ee-LLL	8re	.
.	.	32dd-J	.	.
*	*	*Xbrackettup	*	*
!	!	!LO:TUP:b	!	!
.	.	(<48ccL	.	.
.	.	48dd-	.	.
.	.	48b-JJJ)	.	.
=9	=9	=9	=9	=9
4AA-	16AA-LL	(4a-XSSs	4c	p
.	16E-	.	.	.
.	16E-	.	.	.
.	16E-JJ	.	.	.
4GG	16GGLL	8.ccL	4d-	.
.	16E-	.	.	.
.	16E-	.	.	.
.	16E-JJ	16b-Jk	.	.
*v	*v	*	*	*
*	*v	*v	*
=10	=10	=10
(16AA-LL	4c 4a-)	.
16E-	.	.
16C	.	.
16A-JJ	.	.
16E-LL	4r	.
16c	.	.
16A-	.	.
16e-JJ)	.	.
=11	=11	=11
*^	*^	*
4G	16GLL	(>4b-/SSs	4ryy	.
.	16e-	.	.	.
.	16e-	.	.	.
.	16e-JJ	.	.	.
4A-	16A-LL	8.dd-L	4a-	.
.	16e-	.	.	.
.	16e-	.	.	.
.	16e-JJ	16ccJk	.	.
*v	*v	*	*	*
!!LO:LB:g=original
=12	=12	=12	=12
(16E-LL	4b-)	4g	.
16e-	.	.	.
16dn	.	.	.
16e-JJ	.	.	.
16dLL	4r	4r	.
16e-	.	.	.
16f	.	.	.
16d-JJ)	.	.	.
*	*v	*v	*
=13	=13	=13
.	(<e-8q	.
16r	()8..ccL	.
(16A-LL	.	.
16c	.	.
16e-JJ))	.	.
.	32a-Jkk	.
.	(<e-8q	.
16r	8..ee-L)	.
(16CLL	.	.
16E-	.	.
16A-JJ)	.	.
.	32ccJkk	.
=14	=14	=14
*^	*	*
.	.	(<f8q	.
16r	16rc	4.ff)	sf >
(16FLL	[8.D-	.	.
16G	.	.	.
16A-JJ	.	.	.
16AnLL	4D-]	.	.
16B-	.	.	.
16c	.	16an 16ee-LL	]
16d-JJ)	.	16b- 16dd-JJ)	.
=15	=15	=15	=15
*	*	*^	*
(16e-LL	4E-	(8ccL	4a-	p
16dn	.	.	.	.
16d-	.	8ee-	.	.
16cJJ	.	.	.	.
16B-LL	4E-	8dd-	4g	.
16c	.	.	.	.
16d-	.	8b-J)	.	.
16GJJ)	.	.	.	.
=16	=16	=16	=16	=16
(4G	4.AA-	(4b-	8d-L	.
.	.	.	32cLL	.
.	.	.	32d-	.
.	.	.	32e-	.
.	.	.	32d-JJJ	.
8A-)	.	8a-)	8c	.
8rA	8rBB	8r	8rc	.
*v	*v	*	*	*
*	*v	*v	*
!!LO:LB:g=original
=17	=17	=17
.	(<ff8q	.
4An 4c 4e- 4f	4fff)	f
.	(eee-32qLLL	.
.	ccc32q	.
.	aan32q	.
.	ff32q	.
.	ee-32q	.
.	cc32q	.
.	an32qJJJ)	.
8r	8f	.
16.r	16.r	.
32AAn 32F	32c 32e-	p
=18	=18	=18
4.BB- 4.F	4c ((4e-	.
.	8B- 8d-))	.
8r	8r	.
=19	=19	=19
.	(<ee-8q	.
4G 4B- 4d- 4e-	4eee-)	f
.	(ddd-32qLLL	.
.	bb-32q	.
.	gg32q	.
.	ee-32q	.
.	dd-32q	.
.	b-32q	.
.	g32qJJJ)	.
8r	8e-'	.
16.r	16.r	.
32GG 32E-	32B- 32d-	p
=20	=20	=20
4.AA- 4.E-	4B- ((4d-	.
.	8A- 8c))	.
8r	8r	.
=21	=21	=21
(<C-8q	.	.
4c-)	4r	f
(c-32qLLL	.	.
A-32q	.	.
E-32q	.	.
C32q	.	.
AA-32q	.	.
EE-32qJJJ)	.	.
8CC-	8r	.
16.r	16.r	.
32CC- 32C-	32E- 32A- 32e-	.
!!LO:LB:g=original
=22	=22	=22
4.BBB- 4.BB-	(>4e- 4.F 4.A-	fp
.	16dnLL)	.
.	(16en	.
8r	16f)	.
.	(<16anJJ	.
=23	=23	=23
2r	16b-LL)	.
.	(16cc#	.
.	16ddn)	.
.	(16eenJJ	.
.	16ffLL)	.
.	(16gg	.
.	16aa-X	.
.	16ffJJ)	.
=24	=24	=24
8A- 8B-L	[4ddn	pp
8A- 8B-	.	.
8A- 8B-	(8ddLSSs]	.
8A- 8B-J	16.ee-L	.
.	32ffJJk)	.
=25	=25	=25
8G 8B-L	(8ff	.
8G 8B-	4ee-	.
8G 8B-	.	.
8G 8B-J	8een)	.
=26	=26	=26
*^	*	*
4.ryy	8Dn 8A- 8B-L	[4ff	.
.	8D 8A- 8B-	.	.
!	!	!LO:TURN:lacc=n	!
.	8D 8A- 8B-	(8ffLSSs]	<
(16.GLL	8D 8B-J	16.ggL	.
32FJJk)	.	32aa-JJk)	[[
*v	*v	*	*
!!LO:LB:g=original
=27	=27	=27
8E-X 8F# 8B-L	(8aa-L	>
8E- 8G 8B-	16ggJk)	]
.	16r	.
8E- 8G 8B-	4r	.
8E- 8G 8B-J	.	.
=28	=28	=28
8A- 8B-L	96r	.
.	(96dnLLLL	.
.	96e-	.
.	96f	.
.	96e-	.
.	96d	.
.	96a-	.
.	96g	.
.	96f	.
.	96ddn	.
.	96cc	.
.	96b-JJJJ)	.
!	!LO:TUP:r=32	!
8A- 8B-J	(96ffLLLL	.
.	96ee-	.
.	96ddJJ	.
.	96aa-LL	.
.	96gg	.
.	96ffJJ)	.
.	[16cccJJ	.
8A- 8B-L	8.cccL]	.
8A- 8B-J	.	.
.	(112cccLLL	.
.	112bb-	.
.	112aa-	.
.	112gg	.
.	112ff	.
.	112ee-	.
.	112ddnJJJJ)	.
=29	=29	=29
8r	(16.ffLL	.
.	32ee-JJk	.
8G 8B-L	32.ddnLLL	.
.	64ee-k	.
.	32.ff	.
.	64ee-JJJk)	.
8G 8B-	8e-	.
8G 8B-J	8r	.
!!LO:LB:g=original
=30	=30	=30
8Dn 8A- 8B-L	96r	.
.	(96fLLLL>	.
.	96g	.
.	96a-	.
.	96g	.
.	96f	.
.	96ddn	.
.	96cc	.
.	96b-	.
.	96ff	.
.	96ee-	.
.	96ddJJJJ)	.
!	!LO:TUP:r=32	!
8D 8F 8A- 8B-J	(96aa-LLLL	.
.	96gg	.
.	96ffJJ	.
.	96dddnLL	.
.	96ccc	.
.	96bb-JJ)	.
.	[16fffJJ	.
8D 8F 8A- 8B-L	8.fffL]	.
8D 8F 8A- 8B-J	.	.
!	!LO:TUP:r=32	!
.	(96fffLLL	.
.	96eee-	.
.	96dddJJ	.
.	96cccLL	.
.	96bb-	.
.	96aa-JJJJ)	.
=31	=31	=31
8r	8.ggL	.
8E- 8G 8B-	.	.
.	32rdd	.
.	32ggJkk	.
8r	8.aa-L	.
8F 8A- 8B- 8dn	.	.
.	32rdd	.
.	32aa-Jkk	.
=32	=32	=32
8r	8.bb-L	.
8G 8B- 8e-	.	<
.	32rff	.
.	32bb-Jkk	.
8r	8.bbnL	.
8G 8Bn 8e-	.	.
.	32rff	.
.	32bbJkk	.
!!LO:LB:g=original
=33	=33	=33
8r	8.cccL	.
8A- 8c 8e-	.	.
.	32raa	.
.	32cccJkk	.
8r	8.dddnL	.
8A- 8c- 8dn 8f	.	.
.	32raa	.
.	32dddJkk	.
=34	=34	=34
8r	8.eee-L	f
8An 8c 8e- 8g-	.	.
.	32raa	.
!	!LO:TURN:lacc=n	!
.	32eee-Jkksss	sf
4r	(16fffLL	>
.	16eee-)	.
.	(16dddn'	.
.	16ccc'JJ)	]]
=35	=35	=35
8r	(>16bb-LL	.
.	16aan	p
8B- 8e-> 8gn>	16ccc	.
.	16bb-JJ	.
8r	16aa-LL	.
.	16gg	.
8B- 8dn> 8a->	16ff	.
.	16bb-JJ)	.
=36	=36	=36
*Xbrackettup	*	*
24r	(24ff#LL	pp
24r	24gg	.
(24e-	24gJJ)	.
24B-LL	24r	.
24G	(24ggLL	.
24E-JJ)	24gJJ)	.
24r	(24ggLL	.
24r	24aa-	.
(24f	24a-JJ)	.
24dnLL	24r	.
24B-	(24aa-LL	.
24FJJ)	24a-JJ)	.
!!LO:LB:g=original
=37	=37	=37
*Xtuplet	*Xtuplet	*
24r	(24aanLL	<
24r	24bb-	.
(24g	24b-JJ)	.
24e-LL	24r	.
24B-	(24bb-LL	.
24GJJ)	24b-JJ)	.
24r	(24bb-LL	.
24r	24bbn	.
(24g	24bnJJ)	.
24e-LL	24r	.
24Bn	((24bbLL	.
24GJJ)	24bJJ))	.
=38	=38	=38
24r	(>24bbnLL	.
24r	24ccc	.
(24a->	24ccJJ)	.
24e-LL	24rccc	.
24c	(>24cccLL>	.
24A-JJ)	24ccJJ)	.
24r	(>24ccc#LL>	.
24r	24dddn	.
(24a->	24ddnJJ)	.
24fLL	24rccc	.
24dn	(>24dddLL>	.
24B-JJ)	24ddJJ)	.
*clefG2	*	*
=39	=39	=39
24r	(24dddnLL	rfz
24r	24eee-	.
[[>24an	24ee-JJ)	.
[[>24g-LL	24r	.
[[>24e-	(24eee-LL	f
[24c-JJ	24ee-JJ	.
4c-] 4e-]] 4g-]] 4a]]	24eee-LL	.
.	24gg-	.
.	24eee-zJJ	.
.	24aanLL	.
.	24eee-z	.
.	24aaJJ)	.
*clefF4	*	*
!!LO:LB:g=original
=40	=40	=40
*tuplet	*tuplet	*
*	*^	*
24r	4ryy	[4bb-	f
24BB-'LL<	.	.	.
24E-'JJ	.	.	.
24Gn'LL	.	.	.
24B-'	.	.	.
24e-'JJ	.	.	.
4r	(24bb-LL]	(24gnLL	.
.	24aan	24f#	.
.	24cccJJ)	24a-JJ)	.
.	(24bb-'LL	(24g'LL	.
.	24aa-'	24fn'	.
.	24gg'JJ)	24e-'JJ)	.
=41	=41	=41	=41
!	!	!	!LO:DY:rj
2B- 2a->	8..ffL	4ee-	rfz
.	32ffTJkk	.	.
.	(32eenqLLL	.	.
.	32ffqJJJ	.	.
.	8..bb-L)	4ddn	sf
.	32bb-Jkk	.	.
=42	=42	=42	=42
!	!	!	!LO:DY:b=2
24r	8ee-X	8g	f
24BBB-'LL	.	.	.
24EE-'JJ	.	.	.
24GG'LL	8r	8r	.
24BB-'	.	.	.
24E-'JJ	.	.	.
24G'LL	24r	4ryy	.
(24F#	(24anLL>	.	.
24A-XJJ)	24ccJJ)	.	.
(24G'LL	(24b-'LL	.	.
24Fn'	24a-'	.	.
24E-'JJ)	24g'JJ)	.	.
=43	=43	=43	=43
2BB- 2A-	8..fL	4e-	rfz
.	(32fTJkk	.	.
.	(16qenLL	.	.
.	16qfJJ	.	.
.	8..b-L)	4dn	sfp
.	32b-Jkk	.	.
=44	=44	=44	=44
8E- 8G	8e-	8e-	.
8r	8r	8r	.
4r	4r	4r	.
*	*v	*v	*
!!LO:LB:g=original
=45	=45	=45
8EE-: 8BB-: 8D-: 8E-:	8G: 8d-: 8e-: 8g:	ff
8r	8r	.
4r	4r	.
=46	=46	=46
*	*^	*
(8AA-L	(4a-SSs	(4c	p
8E-	.	.	.
8GG	8.ccL	4d-	.
8E-J)	.	.	.
.	16b-Jk)	.	.
=47	=47	=47	=47
(8AA-L	[4a-	4c)	.
8E-	.	.	.
8A-	(16a-LL]	4ryy	.
.	16g	.	.
8cJ)	16a-	.	.
.	16anJJ)	.	.
=48	=48	=48	=48
*^	*	*	*
(8d-L	4G	(4b-SSS	4e-	.
8B-	.	.	.	.
8A-	4A-	8.dd-L	8e-L	.
8cJ)	.	.	8a-XJ	.
.	.	16ccJk)	.	.
*	*	*v	*v	*
=49	=49	=49	=49
(8e-L	2E- 2e-	4g\ [4b-\	.
8d-	.	.	.
8B-	.	24b-LL]	.
.	.	(24ff	.
.	.	24ee-JJ)	.
8GJ)	.	(24dd-'LL	.
.	.	24cc'	.
.	.	24bn'JJ)	.
*v	*v	*	*
=50	=50	=50
16.r	(8..ccL	<
32A-LKK	.	.
8e-J	.	.
.	32a-Jkk	.
16.r	8..ee-L	.
32CLKK	.	.
8A-J	.	.
.	32ccJkk	.
!!LO:LB:g=original
=51	=51	=51
*^	*	*
16.r	8r	8..ffL	.
32D-LLK	.	.	.
16.A-	16.ryy	.	.
32FJJk	[32F	32dd-Jkk	.
16.d-LL	4F_	[4aa-)	sf
32A-k	.	.	.
16.f	.	.	.
32d-JJk	.	.	.
*v	*v	*	*
=52	=52	=52
*	*^	*
8F] 8A-L	(16aa-LL]	4a-	sf
.	16gg	.	.
8F (8A-J	16ff	.	.
.	16ee-JJ)	.	.
8G 8B-L	(16ee-LL	8e-L	.
.	16dd-)	.	.
8A- 8cJ)	(16dd-	8e-J	.
.	16ccJJ)	.	.
=53	=53	=53	=53
*^	*	*	*
8.cL	4E-	8.ee-L	8e-L	.
.	.	.	8e-	.
16A-Jk	.	16ccJk	.	.
8G	8E-	(16b-TLL	8e-J	.
.	.	(16qanLL	.	.
.	.	16qb-JJ)	.	.
.	.	32dd-L	.	.
.	.	32ccJJJ	.	.
8r	8r	32ee-LLL	8re	.
.	.	32dd-	.	.
.	.	64ccL	.	.
.	.	64ee-	.	.
.	.	64dd-	.	.
.	.	64b-JJJJ)	.	.
=54	=54	=54	=54	=54
4AA-	16AA-LL	(4a-XSSs	4c	.
.	16E-	.	.	.
.	16E-	.	.	.
.	16E-JJ	.	.	.
4GG	16GGLL	8.ccL	4d-	.
.	16E-	.	.	.
.	16E-	.	.	.
.	16E-JJ	16b-Jk)	.	.
*v	*v	*	*	*
!!LO:LB:g=original
=55	=55	=55	=55
*Xtuplet	*	*	*
(24AA-'LL<	4a-	4c	.
24E-'	.	.	.
24C'JJ)	.	.	.
(24A-'LL	.	.	.
24E-'	.	.	.
24c'JJ)	.	.	.
(24A-'LL	4r	4r	.
24e-'	.	.	.
24d-'JJ)	.	.	.
(24c'LL	.	.	.
24B-'	.	.	.
24A-'JJ)	.	.	.
=56	=56	=56	=56
*^	*	*	*
4G	16GLL	(4b-SSs	4e-	.
.	16E-	.	.	.
.	16E-	.	.	.
.	16E-JJ	.	.	.
4A-	16A-LL	8.dd-L	4e- 4a-	.
.	16E-	.	.	.
.	16E-	.	.	.
.	16E-JJ	16ccJk)	.	.
*v	*v	*	*	*
*	*v	*v	*
=57	=57	=57
(24EE-'LL	4e- 4g 4b-	.
24GG'	.	.
24BB-'JJ	.	.
24E-'LL	.	.
24G'	.	.
24B-'JJ	.	.
24d-'LL	4r	.
24f'	.	.
24e-'JJ	.	.
24d-'LL	.	.
24c'	.	.
24B-'JJ)	.	.
=58	=58	=58
.	(<e-8q	.
24A-	()8..ccL	.
(24e-'LL	.	.
24c'	.	.
24A-'	.	.
24E-'	.	.
24C'JJ)	.	.
.	32a-Jkk)	<
.	(e-8q	.
24r	(8..ee-L)	.
(24c'LL	.	.
24A-'	.	.
24E-'	.	.
24C'	.	.
24AA-'JJ)	.	.
.	32ccJkk)	.
!!LO:LB:g=original
=59	=59	=59
*^	*	*
.	.	[f8q	.
24r	24r	4f/_ [4ff/	f
(24D-LL	[12D-	.	>
24E-	.	.	.
24F	4.D-]	.	.
24G-	.	.	.
24GnJJ	.	.	.
24A-LL	.	8f/_ 8ff/_	.
24An	.	.	.
24B-JJ	.	.	.
24BnLL	.	(24f] 24ffLL>]	.
24c	.	24an 24ee-	.
24d-JJ)	.	24b- 24dd-JJ)	.
*v	*v	*	*
=60	=60	=60
*^	*^	*
24r	4E-	(8ccL	4a-X	p
(<24e-LL	.	.	.	.
24dnJJ)	.	.	.	.
24re	.	8ee-	.	.
(<24d-LL	.	.	.	.
24cJJ)	.	.	.	.
24r	4E-	8dd-	4g	.
(24B-LL	.	.	.	.
24cJJ)	.	.	.	.
24rc	.	8b-J)	.	.
(<24d-LL	.	.	.	.
24GJJ)	.	.	.	.
=61	=61	=61	=61	=61
(4G	4.AA-	(4b-	[>8d-	.
.	.	.	(>32d-LLL]	.
.	.	.	64cL	.
.	.	.	64d-	.
.	.	.	64e-	.
.	.	.	64d-	.
.	.	.	64c	.
.	.	.	64d-JJJJ)	.
8A-)	.	8a-)	8c	.
8rA	8ryy	8r	8r	.
*v	*v	*	*	*
*	*v	*v	*
=62	=62	=62
.	(<ff8q	.
4A- 4c 4e- 4f	4fff)	ff
.	(eee-32qLLL	.
.	ccc32q	.
.	aan32q	.
.	ff32q	.
.	ee-32q	.
.	cc32q	.
.	an32qJJJ)	.
8r	8f'	.
16.r	16.r	.
32AAn 32F	32c 32e-	p
!!LO:LB:g=original
=63	=63	=63
4.BB- 4.F	(4c 4e-	.
.	8B-) 8d-	.
8r	8r	.
=64	=64	=64
.	(<ee-8q	.
4G 4B- 4d- 4e-	4eee-)	ff
.	(bb-32qLL	.
.	gg32q	.
.	ee-32q	.
.	dd-32q	.
.	b-32q	.
.	g32qJJ)	.
8r	8e-'	.
16.r	16.r	.
32GG 32E-	32B- 32d-	p
=65	=65	=65
4.AA- 4.E-	(4B- 4d-	.
.	8A-) 8c-	.
8r	8r	.
=66	=66	=66
(<8qC-	.	.
!	!	!LO:DY:b=2
4c-)	4r	ff
(32c-qLLL	.	.
32A-q	.	.
32F-q	.	.
32C-q	.	.
32AA-q	.	.
32FF-qJJJ)	.	.
8CC-	8r	.
16.r	16.r	.
32CC- 32C-	32F-< 32A-< 32f-	.
=67	=67	=67
*^	*	*
4.G-/ 4.B--/	4.CC- 4.C-	(4f-	fp
.	.	8e-)	.
16.r	16.r	16.r	.
32CC-\ 32C-\	32ryy	32e- 32Fn< 32A-<	.
!!LO:LB:g=original
=68	=68	=68	=68
4.F/ 4.A-/	4CC- (<(4C-	(4e-	fp
.	)8BBB-) 8BB-)	8dn)	.
16.r	16.r	16.r	.
32ryy	32BBB-\ 32BB-\	32d 32F< 32A-<	.
*v	*v	*	*
=69	=69	=69
!	!	!LO:DY:rj
(<…4BBB-\ 4BB-\	(4dn 4F< 4A-<	sfp
8EE- 8E-)	16d-) 16G< 16B-<	.
.	(16anLL	.
8r	16b-)	.
.	(16ccJJ	.
=70	=70	=70
2r	16dd-LL)	.
.	(16ff#	.
.	16gg)	.
.	(16aanJJ	.
.	16bb-LL)	.
.	(16ccc	.
.	16ddd-	.
.	16bb-JJ)	.
=71	=71	=71
8d- 8e-L	[4gg	pp
8d- 8e-	.	.
8d- 8e-	(8ggSsSL]	.
8d- 8e-J	16.aa-XL	.
.	32bb-JJk)	.
=72	=72	=72
8c 8e-L	(8bb-	.
8c 8e-	4aa-	.
8c 8e-	.	.
8c 8e-J	8aan)	.
=73	=73	=73
*^	*	*
4.ryy	8G 8d- 8e-L	[4bb-	.
.	8G 8d- 8e-	.	.
.	8G 8d- 8e-)	(8bb-SSSL]	.
(16.cLL	8G >8e-J	16.cccnL	.
32B-JJk)	.	32ddd-JJk)	.
*v	*v	*	*
!!LO:LB:g=original
=74	=74	=74
8A- 8Bn 8e-L	(8ddd-L	.
8A- 8c 8e-	16cccJk)	.
.	16r	.
8A- 8c 8e-	4r	.
8A- 8c 8e-J	.	.
=75	=75	=75
*	*tuplet	*
8d- 8e-L	96r	.
.	(96gLLLL	.
.	96a-	.
.	96b-	.
.	96a-	.
.	96g	.
.	96dd-	.
.	96cc	.
.	96b-	.
.	96ff	.
.	96ee-	.
.	96dd-JJJJ)	.
8d- 8e-J	(96bb-LLLL	.
.	96aa-	.
.	96gg	.
.	96ddd-	.
.	96ccc	.
.	96bb-JJ)	.
.	[16fffJJ	.
8d- 8e-L	8.fffL]	.
8d- 8e-J	.	.
.	(112fffLLL	.
.	112eee-	.
.	112ddd-	.
.	112ccc	.
.	112bb-	.
.	112aa-	.
.	112ggJJJJ)	.
=76	=76	=76
8r	(16.bb-LL	.
.	32aa-JJk	.
8c 8e-L	32.ggLLL	.
.	64aa-k	.
.	32.bb-	.
.	64aa-JJJk)	.
8c 8e-	8a-	.
8c 8e-J	8r	.
!!LO:LB:g=original
=77	=77	=77
8G 8d- 8e-L	96r	.
.	(96b-LLLL	.
.	96cc	.
.	96dd-	.
.	96cc	.
.	96b-	.
.	96ff	.
.	96ee-	.
.	96dd-	.
.	96bb-	.
.	96aa-	.
.	96ggJJJJ)	.
8G 8B- 8d- 8e-J	[8ddd-	.
8G 8B- 8d- 8e-L	8.ddd-]	.
8G 8B- 8d- 8e-J	.	.
.	(176cccLLLL	.
.	176ddd-	.
.	176eee-	.
.	176ddd-	.
.	176ccc	.
.	176bb-	.
.	176aa-	.
.	176gg	.
.	176ff	.
.	176ee-	.
.	176dd-JJJJ)	.
*clefG2	*	*
=78	=78	=78
8r	8.ccL	.
8A- 8e-	.	.
.	32rb	.
.	32ccJkk	.
8r	8.dd-L	.
8B- 8d- 8e- 8g	.	<
.	32rb	.
.	32dd-Jkk	.
=79	=79	=79
8r	8.ee-L	.
8c 8e- 8a-	.	.
.	32rb	.
.	32ee-Jkk	.
8r	8.eenL	.
8c 8en 8a-	.	.
.	32rb	.
.	32eeJkk	.
!!LO:LB:g=original
=80	=80	=80
8r	8.ffL	.
8d- 8f 8a-	.	.
.	32rdd	.
.	32ffJkk	.
8r	8.ggL	.
8d- 8en 8g 8b-	.	.
.	32rdd	.
.	32ggJkk	.
=81	=81	=81
8r	8.aa-L	f
8dn 8f 8a- 8cc-	.	.
.	32rff	.
.	32aa-sSSJkk	.
4r	(16bb-LL	sf
.	16aa-)	>
.	(16gg'	.
.	16ff'JJ)	]]
*clefF4	*	*
=82	=82	=82
8r	(16ee-LL	p
.	16ddn	.
8E- 8A- 8c	16ff	.
.	16ee-JJ	.
8r	16dd-LL	.
.	16cc	.
8E- 8G 8d-	16b-	.
.	16ee-JJ)	.
=83	=83	=83
*tuplet	*	*
24r	(24bnLL	pp
24r	24cc	.
(24A-	24cJJ)	.
24E-LL<	24r	.
24C	(24ccLL	.
24AA-JJ)	24cJJ)	.
24r	(24ccLL	.
24r	24dd-	.
(24B-	24d-JJ)	.
24GLL	24r	.
24E-	(24dd-LL	.
24BB-JJ)	24d-JJ)	.
!!LO:LB:g=original
=84	=84	=84
24r	(24ddnLL<	<
24r	24ee-	.
(24c	24e-JJ)	.
24A-LL	24r	.
24E-	(24ee-LL<	.
24CJJ)	24e-JJ)	.
24r	(24ee-LL<	.
24r	24een	.
(24c	24enJJ)	.
24A-LL	24r	.
24En	(24eeLL<	.
24CJJ)	24eJJ)	.
=85	=85	=85
*Xtuplet	*Xtuplet	*
24r	(24eenLL	.
24r	24ff	.
(24d-	24fJJ)	.
24A-LL	24r	.
24F	(24ffLL	.
24D-JJ)	24fJJ)	.
24r	(24ff#LL	.
24r	24gg	.
(24d-	24gJJ)	.
24B-LL	24r	.
24G	(24ggLL	.
24E-JJ)	24gJJ)	.
=86	=86	=86
*^	*	*
24rc	4ryy	(24ggLL	rfz
24rc	.	24aa-	.
[[>24dn/	.	24a-JJ)	.
!LO:N:vis=24.	!	!	!
[[>24c-	.	24r	.
!LO:N:vis=12	!	!	!
[[>24A-	.	(24aa-LL	.
[<24F-	.	24a-JJ)	.
4A-]] 4c-]] 4d]]	4F-]	(24ccc-LL	f
.	.	24cc-	.
.	.	24ccc-JJ	sf
.	.	24a-LL	.
.	.	24aa-	sf
.	.	24a-JJ	.
*v	*v	*	*
!!LO:LB:g=original
=87	=87	=87
*tuplet	*	*
24r	8ee-)	p
24E-'LL	.	.
24A-JJ	.	.
24cn'LL	8r	.
24e->'	.	.
24a->'JJ	.	.
*clefG2	*	*
*tuplet	*tuplet	*
24ccn'LL	24r	.
(24bn	(24dddnLL	.
24dd-XJJ)	24fffJJ)	.
(24cc'LL	(24eee-'LL	.
24b-'	24ddd-'	.
24a-'JJ)	24cccn'JJ)	.
=88	=88	=88
*	*^	*
2e- 2dd-	8..bb-L	4aa-	rfz
.	32bb-TJkk	.	.
.	(aan32qLLL	.	.
.	bb-32qJJJ	.	.
.	8..eee-L)	4gg	sf
.	32eee-Jkk	.	.
*clefF4	*	*	*
=89	=89	=89	=89
!	!	!	!LO:DY:b=2
*Xtuplet	*	*Xtuplet	*
24r	8aa-	8cc	f
24EE-'LL	.	.	.
24AA-JJ	.	.	.
24C'LL	8r	8r	.
24E-'	.	.	.
24A-'JJ	.	.	.
(24c'LL	4ryy	24r	.
24Bn	.	(24ddnLL	.
24d-XJJ)	.	24ffJJ)	.
(24cLL	.	(24ee-'LL	.
24B-'	.	24dd-'	.
24A-'JJ)	.	24cc'JJ)	.
=90	=90	=90	=90
2E- 2d-	8..b-L	4a-	rfz
.	32b-TJkk	.	.
.	(an32qLLL	.	.
.	b-32qJJJ	.	.
.	8..ee-L)	4g	sf
.	32ee-Jkk	.	.
!!LO:LB:g=original
=91	=91	=91	=91
(8A-L	(4a-	16c 16e-LK	p
.	.	8c 8e-	.
8E-	.	.	.
.	.	16c 16e-Jk	.
8G	8.ccL	16d- 16e-LK	.
.	.	8d- 8e-	.
8E-J	.	.	.
.	16b-Jk)	16d- 16e-Jk	.
=92	=92	=92	=92
8A-L	[4a-	16c 16e-LK	.
.	.	8c 8e-	.
8E-	.	.	.
.	.	8c 8e-	.
8C	(8.a-L]	.	.
.	.	8c 8e-	.
8AA-J)	.	.	.
.	16anJk	16c 16e-Jk	.
=93	=93	=93	=93
(>8GGL	()4b-SSs	16d- 16e-LK	.
.	.	8e-	.
8EE-	.	.	.
.	.	[16e-Jk	.
8AA-	8.a- 8.dd-L	16e-LK]	.
.	.	8e-	.
8CJ	.	.	.
.	16a- 16ccJk)	[16e-Jk	.
=94	=94	=94	=94
*^	*	*	*
4ryy	8E-L	2g 2b-	16e-LK]	.
.	.	.	8e-	.
.	8F	.	.	.
.	.	.	8e-	.
[4E-	8E-	.	.	.
.	.	.	8e-	.
.	8D-J)	.	.	.
.	.	.	[16e-Jk	.
=95	=95	=95	=95	=95
8E-]	(4C	(4ee-	16e-LK]	.
.	.	.	8e-	.
4A-	.	.	.	.
.	.	.	8e-	.
.	4BB-	4dd-	.	.
.	.	.	8e-	.
[8G	.	.	.	.
.	.	.	[16e-Jk	.
!!LO:LB:g=original
=96	=96	=96	=96	=96
8G]	4AA-	4cc	16e-LK]	.
.	.	.	8e-	.
4A-	.	.	.	.
.	.	.	[16enJk	.
.	4D-	8b-L	16eLK]	.
.	.	.	8f	.
(16B-LL	.	16.dd-L	.	.
16d-JJ)	.	.	[16fJk	.
.	.	32b-JJk)	.	.
=97	=97	=97	=97	=97
8rc	4E-)	(4a-	16fLK]	.
.	.	.	8e-X	.
4c	.	.	.	.
.	.	.	8e-	.
.	4E-	8anL	.	.
.	.	.	8e-	.
[8G	.	8b-J	.	.
.	.	.	[16e-Jk	.
=98	=98	=98	=98	=98
8GL]	(4AA- 4E-	8bnL	16e-LK]	.
.	.	.	8e-	.
8A-	.	8c 8cc	.	.
!	!	!	!	!LO:HP:a
.	.	.	8e-	<
8B-	8BB- 8E-L	8d- 8dd-	.	.
.	.	.	8e-	.
8BnJ	8BBn 8E-J)	8dn (8ddnJ)	.	[
.	.	.	[16e-Jk	.
=99	=99	=99	=99	=99
!	!	!	!	!LO:HP:a
16cLK	(4C 4E-	(4ee-)	8e-L]	>
8A-	.	.	.	.
.	.	.	8e-J	]]
8A-	.	.	.	.
.	4BB- 4E-	4dd-X	8d-X 8e-L	.
8G	.	.	.	.
.	.	.	8d- 8e-J	.
[16GJk	.	.	.	.
=100	=100	=100	=100	=100
16GLK]	4AA-	4cc	8c 8e-L	.
8A-	.	.	.	.
.	.	.	8c 8enJ	.
[16A-Jk	.	.	.	.
(16A-LL]	4D-	16b-LL	8.fL	.
16An	.	16cc	.	.
16B-	.	16.dd-	.	.
[16d-JJ)	.	.	16fJk	.
.	.	32b-JJk)	.	.
*	*	*v	*v	*
!!LO:LB:g=original
=101	=101	=101	=101
*	*	*^	*
*	*	*	*^	*
8d-L]	4E-)	16a-LK	8a-L	4.e-\	.
.	.	8ee-	.	.	<
8c	.	.	8an	.	.
.	.	8ee-	.	.	.
8d-	4E-	.	8b-	.	.
.	.	8ee-	.	.	[ >
*	*	*	*v	*v	*
*	*	*	*^	*
8B- 8d-J	.	.	8gJ	8e-\	.
*	*	*	*v	*v	*
.	.	16ee-Jk	.	]
*v	*v	*	*	*
=102	=102	=102	=102
8AA- (8A-L	8a-	16c 16e-LK	pp
.	.	8e-	.
8C	8r	.	.
.	.	8e-	.
8E-	4r	.	.
.	.	8e-	.
8A-J	.	.	.
.	.	[16e-Jk	.
=103	=103	=103	=103
8GL	4b- 4dd-	16e-LK]	.
.	.	8e-	.
8F	.	.	.
.	.	8e-	.
8E-	4b- 4dd-	.	.
.	.	8e-	.
8GJ	.	.	.
.	.	[16e-Jk	.
=104	=104	=104	=104
8A-L	8a- 8cc	16e-LK]	.
.	.	8e-	.
8E-	8r	.	.
.	.	8e-	.
8C	4r	.	.
.	.	8e-	.
8AA-J	.	.	.
.	.	[16e-Jk	.
=105	=105	=105	=105
8GGL	4d- 4b-	16e-LK]	.
.	.	8e-	.
8FF	.	.	.
.	.	8e-	.
8EE-	4d- 4b-	.	.
.	.	8e-	.
8GGJ)	.	.	.
.	.	16e-Jk	.
*	*v	*v	*
!!LO:LB:g=original
=106	=106	=106
*^	*	*
4.ryy	(<8AA-L	16c 16a-	.
.	.	8E-< 8e-L	.
.	8EE-	.	.
.	.	8E-< 8e-	.
.	8CC	.	.
.	.	8E-< 8e-	.
8A- 8c	8AAA- 8AA-J	.	.
.	.	[<16E-< [<16e-Jk	.
=107	=107	=107	=107
4B- 4d-	8GGG 8GGL	16E-<] 16e-LK]	.
.	.	8E-< 8e-	.
.	8FFF 8FF	.	.
.	.	8E-< 8e-	.
4B- 4d-	8GGG 8GG	.	.
.	.	8E-< 8e-	.
.	8EEE-) 8EE-J	.	.
.	.	[<16E-< [16e-Jk	.
=108	=108	=108	=108
8ryy	(<8AAA-L	16E-<] 16A-< 16c< 16e-LK]	.
.	.	8E-< 8A-< 8c< 8e-	.
[4.AA-/	8AA-	.	.
.	.	8E-< 8A-< 8c< 8e-	.
.	8EE-	.	.
.	.	8E-< 8A-< 8c< 8e-	.
.	8CCJ)	.	.
!	!	!	!LO:HP:a
.	.	[<16E-< [<16A-< [16c< [<16e-Jk	>
=109	=109	=109	=109
(8AA-/]	8AAA-	16E-<] 16A-<] 16c<] 16e-LK]	.
.	.	8E-< 8A-< 8c<	.
[4.AA-/	(8AA-L	.	.
.	.	8E-< 8A-< 8c<	.
.	8EE-	.	.
.	.	8E-< 8A-< 8c<	.
.	8CCJ)	.	.
.	.	[<16E-< [<16A-< [16c<Jk	.
=110	=110	=110	=110
8AA-/]	8AAA-	16E-<] 16A-<] 16c<LK]	.
.	.	8C< 8E-< 8A-<	.
N[4.AA-/	(8AA-L	.	.
.	.	8C< 8E-< 8A-<	.
.	8EE-	.	.
.	.	8C< 8E-< 8A-<	.
.	8CCJ)	.	.
.	.	[16C< [16E-< [16A-<Jk	.
*v	*v	*	*
=111	=111	=111
8AAA-	8AA-<N] 8C<] 8E-<] 8A-<]	.
8r	8r	.
8AAA-	8C< 8E-<	pp
8r	8r	.
*	*clefF4	*clefF4
=112	=112	=112
2AAA-;< 2AA-;<	2C<;	.
==	==	==
*-	*-	*-
!!!RDF**kern: > = above
!!!RDF**kern: < = below
!!!RDF**kern: N = linked
!!!verovio: beamFrenchStyle
!!!LOR: Durand 1915, plates 9327/9328, Paul Dukas, ed.
!!!PED: Dukas, Paul
!!!URL-vhv: https://verovio.humdrum.org/?file=beethoven/sonatas/sonata05-2.krn
!!!URL-pdf: https://github.com/craigsapp/beethoven-piano-sonatas/blob/master/reference-edition/sonata05-2.pdf
!!!ENC: Craig Stuart Sapp
!!!END: 2008/10/31
!!!EED: Craig Stuart Sapp
!!!EEV: 2022/04/29
